X: 5
T: Nine Points Of Roguery, The
Z: Kitastrophe
S: https://thesession.org/tunes/429#setting52373
R: reel
M: 4/4
L: 1/8
K: Dmaj
|:z2|D2 FD GEFE|DEFG ABAF|D2 FD GEFA| BEEE BEGE|
D2 FD GEFE|DEFG ABAF|D2FA GAce|d2 dcd2:|
|:AB|~=c3 A ~B3 G|A2 AB AGFE |D2 FD GEFA| BEEE BEGB|
~=c3 A ~B3 G|Adcd fdAF|D2FA GAce|d2 dcd2:|
|:fe|d2 fefe| defg abaf|d2fd gefa|be~e2 bege|
d2fd gefe|defg abaf|d2fa gece| d2 dcd2:|
|:AB|~=c3 A ~B3 G|A2 AB AGFE |D2 FD GEFA| BEEE BEGB|
~=c3 A ~B3 G|Adcd fdAF|D2FA GAce| d2 dcd2:|

